X: 812
T: Gelmez Oldu Hiç Sesin
C: Dramalı Hasan Hasgüler
O: Turkey
F: http://compmusic.upf.edu/node/140
N: rast--sarki--sofyan--gelmez_oldu--dramali_hasan_hasguler
N: makam= rast
N: form= sarki
N: usul= sofyan = 4/4
M: 4/4
L: 1/16
K: C _1/4B ^f  
Q: 1/4=90
%%MIDI tuningsystem comma53
B2d2 zBcd e2d2 B2G2  | B2BG AGAG B4 z4  | \
w:  ARANAĞME  |   | 
cBAG A2B2 c2e2 d4  | 
w:   | 
B2BG AGAB G3D G4  | B2d2 zBcd e2d2 B2G2  | \
w:   |  ARANAĞME  | 
B2BG AGAG B4 z4  | 
w:   | 
cBAG A2B2 c2e2 d4  | B2BG AGAB G3D G4  | \
w:   |   | 
B3G A2B2 A2G2 B4  | 
w:  Gel mez_ ol du  hiç  se sin    | 
D3E F2D2 E2F2 D4  | cB3 A2B2 c2e2 d4  | \
w:  Söy le  ca nım  ner de sin    |  U zak la ra  mı  git tin    | 
B3G A2B2 A2D2 G4  | 
w:  Han gi  giz li  yer de sin    | 
B3G A2B2 A2G2 B4  | D3E F2D2 E2F2 D4  | \
w:  Gel mez_ ol du  hiç  se sin    |  Söy le  ca nım  ner de sin    | 
cB3 A2B2 c2e2 d4  | 
w:  U zak la ra  mı  git tin    | 
B3G A2B2 A2D2 G4  | Bcde dcBc d4 z4  | \
w:  Han gi  giz li  yer de sin    |  SAZ  | 
dgfe dcBA G2D2 G4  | 
w:   | 
B2d2 z2cd e2d6  | B3G A2B2 c2B2 z4  | \
w:  Kal bim  se ni  öz ler    |  Yol la rı nı  göz ler    | 
c3B A2B2 c2e2 d4  | 
w:  Ner de  ver di ğin  söz ler    | 
BG3 AB3 A2D2 G4  | B2d2 z2cd e2d6  | \
w:  Ni çin  ne den  gel me din    |  Kal bim  se ni  öz ler    | 
B3G A2B2 c2B2 z4  | 
w:  Yol la rı nı  göz ler    | 
c3B A2B2 c2e2 d4  | BG3 AB3 A2D2 G4  | \
w:  Ner de  ver di ğin  söz ler    |  Ni çin  ne den  gel me din    | 
B2d2 zBcd e2d2 B2G2  | 
w:  ARANAĞME  | 
B2BG AGAG B4 z4  | cBAG A2B2 c2e2 d4  | \
w:   |   | 
B2BG AGAB G3D G4  | 
w:   | 
B2d2 zBcd e2d2 B2G2  | B2BG AGAG B4 z4  | \
w:  ARANAĞME  |   | 
cBAG A2B2 c2e2 d4  | 
w:   | 
B2BG AGAB G3D G4  | B3G A2B2 A2G2 B4  | \
w:   |  Gel mez_ ol du  hiç  se sin    | 
D3E F2D2 E2F2 D4  | 
w:  Söy le  ca nım  ner de sin    | 
cB3 A2B2 c2e2 d4  | B3G A2B2 A2D2 G4  | \
w:  U zak la ra  mı  git tin    |  Han gi  giz li  yer de sin    | 
B3G A2B2 A2G2 B4  | 
w:  Gel mez_ ol du  hiç  se sin    | 
D3E F2D2 E2F2 D4  | cB3 A2B2 c2e2 d4  | \
w:  Söy le  ca nım  ner de sin    |  U zak la ra  mı  git tin    | 
B3G A2B2 A2D2 G4  | 
w:  Han gi  giz li  yer de sin    | 
Bcde dcBc d4 z4  | dgfe dcBA G2D2 G4  | 
w:  SAZ  |   | 
B2d2 z2cd e2d6  | B3G A2B2 c2B2 z4  | \
w:  Kal bim  se ni  öz ler    |  Yol la rı nı  göz ler    | 
c3B A2B2 c2e2 d4  | 
w:  Ner de  ver di ğin  söz ler    | 
BG3 AB3 A2D2 G4  | B2d2 z2cd e2d6  | \
w:  Ni çin  ne den  gel me din    |  Kal bim  se ni  öz ler    | 
B3G A2B2 c2B2 z4  | 
w:  Yol la rı nı  göz ler    | 
c3B A2B2 c2e2 d4  | BG3 AB3 A2D2 G4  | |


